X:1
T: Miss Wildman's Reel
C:R. Mackintosh
R:Reel
Q: 232
K:G
M:4/4
L:1/8
|:d|B2 AG DG Bd|GB dg aA Ac|B2 AG DG Bd|ce dc BG Gd|
B2 AG DG Bd|GB dg aA Ac|B2 AG DG Bd|ce dc BG Gd|
Bc dg ce gc|Bd gB aA Ac|Bd gB ce gc|Bd Ac BG Gc|
Bc dg ce gc|Bd gB aA Ac|Bd gb ce ag|fd ef gG G:|
